deployments/warp_routes/EZSOL/logo.svg

<svg width="96" height="96" viewBox="0 0 96 96" fill="none" xmlns="http://www.w3.org/2000/svg">
<rect x="3" y="3" width="90" height="90" rx="45" fill="black"/>
<rect x="3" y="3" width="90" height="90" rx="45" stroke="url(#paint0_linear_10420_38480)" stroke-width="6"/>
<g opacity="0.7">
<path d="M35.5449 29.75L67.1579 25.3071V27.9387L35.5449 32.3816V29.75Z" fill="#98D120"/>
<path d="M34.6338 30.3382C34.8767 30.0101 35.203 29.7989 35.5446 29.7509V32.3825C35.203 32.4305 34.8767 32.6417 34.6338 32.9698V30.3382Z" fill="#98D120"/>
<path d="M67.1572 25.3066C67.547 25.2519 67.8051 25.6015 67.8051 26.002V28.6332C67.805 28.2329 67.5469 27.8835 67.1572 27.9382V25.3066Z" fill="#98D120"/>
<path d="M67.8047 26.0023C67.8047 26.1944 67.7452 26.3983 67.6123 26.5749V29.2065C67.7452 29.0299 67.8047 28.826 67.8047 28.6338V26.0023Z" fill="#98D120"/>
<path d="M28.3867 38.7657L34.6334 30.3369V32.9685L28.3867 41.3973V38.7657Z" fill="#98D120"/>
<path d="M67.6129 26.5752L61.3662 35.004V37.6356L67.6129 29.2068V26.5752Z" fill="#98D120"/>
<path d="M28.1943 39.3386C28.1944 39.1464 28.2538 38.9425 28.3868 38.7659V41.3975C28.2538 41.5741 28.1944 41.778 28.1943 41.9701V39.3386Z" fill="#98D120"/>
<path d="M28.8422 40.0332C28.4525 40.088 28.1944 39.7385 28.1943 39.3382V41.9695C28.1943 42.37 28.4524 42.7196 28.8422 42.6648V40.0332Z" fill="#98D120"/>
<path d="M61.3659 35.0048C61.123 35.3329 60.7966 35.5441 60.4551 35.5921V38.2237C60.7966 38.1757 61.123 37.9645 61.3659 37.6364V35.0048Z" fill="#98D120"/>
<path d="M60.4557 35.5903L28.8428 40.0332V42.6648L60.4557 38.2219V35.5903Z" fill="#98D120"/>
<path d="M28.8428 44.6387L60.4557 40.1958V42.8273L28.8428 47.2702V44.6387Z" fill="#98D120"/>
<path d="M60.4551 40.1973C60.7966 40.1493 61.123 40.2687 61.3659 40.5286V43.1601C61.123 42.9003 60.7966 42.7808 60.4551 42.8288V40.1973Z" fill="#C4FF61"/>
<path d="M28.1943 45.5165C28.1944 45.1162 28.4525 44.6942 28.8422 44.6394V47.271C28.4525 47.3258 28.1944 47.7477 28.1943 48.1481V45.5165Z" fill="#98D120"/>
<path d="M28.3868 46.0364C28.2538 45.8972 28.1944 45.7101 28.1943 45.5179V48.1492C28.1943 48.3414 28.2538 48.5287 28.3868 48.668V46.0364Z" fill="#C4FF61"/>
<path d="M61.3662 40.5273L67.6129 47.2003V49.8319L61.3662 43.1589V40.5273Z" fill="#98D120"/>
<path d="M34.6334 52.7081L28.3867 46.0352V48.6667L34.6334 55.3397V52.7081Z" fill="#98D120"/>
<path d="M67.6123 47.2012C67.7453 47.3404 67.8048 47.5277 67.8047 47.72V50.3513C67.8047 50.1591 67.7452 49.9719 67.6123 49.8328V47.2012Z" fill="#98D120"/>
<path d="M67.8051 47.7195C67.805 48.1199 67.5469 48.5418 67.1572 48.5966V51.2282C67.5469 51.1734 67.805 50.7515 67.8051 50.3511V47.7195Z" fill="#98D120"/>
<path d="M35.5446 53.0403C35.203 53.0883 34.8767 52.9688 34.6338 52.709V55.3406C34.8767 55.6004 35.203 55.7199 35.5446 55.6719V53.0403Z" fill="#98D120"/>
<path d="M67.1579 48.5961L35.5449 53.0391V55.6706L67.1579 51.2277V48.5961Z" fill="#98D120"/>
<path d="M35.5449 57.7773L67.1579 53.3344V55.966L35.5449 60.4089V57.7773Z" fill="#98D120"/>
<path d="M34.6338 58.3631C34.8767 58.0353 35.203 57.8243 35.5446 57.7763V60.4079C35.203 60.4559 34.8767 60.6669 34.6338 60.9947V58.3631Z" fill="#98D120"/>
<path d="M67.1572 53.334C67.547 53.2792 67.8051 53.6284 67.8051 54.0285V56.6598C67.805 56.2598 67.5469 55.9108 67.1572 55.9656V53.334Z" fill="#98D120"/>
<path d="M67.8047 54.0276C67.8047 54.2196 67.7452 54.4234 67.6123 54.5998V57.2313C67.7452 57.0549 67.8047 56.8512 67.8047 56.6592V54.0276Z" fill="#98D120"/>
<path d="M28.3867 66.7948L34.6334 58.3643V60.9959L28.3867 69.4264V66.7948Z" fill="#98D120"/>
<path d="M67.6129 54.6006L61.3662 63.0311V65.6627L67.6129 57.2322V54.6006Z" fill="#98D120"/>
<path d="M28.1943 67.3654C28.1944 67.1734 28.2538 66.9697 28.3868 66.7933V69.4248C28.2538 69.6012 28.1944 69.805 28.1943 69.997V67.3654Z" fill="#98D120"/>
<path d="M28.8422 68.0598C28.4525 68.1145 28.1944 67.7655 28.1943 67.3655V69.9968C28.1943 70.3969 28.4524 70.7461 28.8422 70.6914V68.0598Z" fill="#98D120"/>
<path d="M61.3659 63.0302C61.123 63.358 60.7966 63.569 60.4551 63.6171V66.2486C60.7966 66.2006 61.123 65.9896 61.3659 65.6618V63.0302Z" fill="#98D120"/>
<path d="M60.4557 63.6176L28.8428 68.0605V70.6921L60.4557 66.2492V63.6176Z" fill="#98D120"/>
</g>
<path d="M34.6334 30.3375C34.8763 30.0095 35.2027 29.7982 35.5443 29.7502L67.1572 25.3073C67.547 25.2525 67.8051 25.6022 67.8051 26.0026C67.805 26.1948 67.7455 26.3987 67.6126 26.5753L61.3659 35.004C61.1231 35.3321 60.7967 35.5433 60.4551 35.5913L28.8422 40.0343C28.4524 40.089 28.1943 39.7394 28.1943 39.3389C28.1944 39.1468 28.2538 38.9429 28.3868 38.7663L34.6334 30.3375Z" fill="#C4FF61"/>
<path d="M34.6334 58.3634C34.8763 58.0356 35.2027 57.8246 35.5443 57.7766L67.1572 53.3336C67.547 53.2789 67.8051 53.6281 67.8051 54.0282C67.805 54.2202 67.7455 54.4239 67.6126 54.6003L61.3659 63.0308C61.1231 63.3586 60.7967 63.5697 60.4551 63.6177L28.8422 68.0606C28.4524 68.1154 28.1943 67.7661 28.1943 67.366C28.1944 67.174 28.2538 66.9703 28.3868 66.7939L34.6334 58.3634Z" fill="#C4FF61"/>
<path d="M60.4551 40.1966C60.7967 40.1486 61.1231 40.2681 61.3659 40.5279L67.6126 47.2008C67.7456 47.3401 67.8051 47.5274 67.8051 47.7197C67.805 48.1201 67.5469 48.542 67.1572 48.5968L35.5443 53.0397C35.2027 53.0877 34.8763 52.9682 34.6334 52.7084L28.3868 46.0355C28.2538 45.8962 28.1943 45.7089 28.1943 45.5166C28.1944 45.1163 28.4525 44.6943 28.8422 44.6395L60.4551 40.1966Z" fill="#C4FF61"/>
<defs>
<linearGradient id="paint0_linear_10420_38480" x1="14.399" y1="98.9338" x2="101.627" y2="6.85355" gradientUnits="userSpaceOnUse">
<stop stop-color="#9945FF"/>
<stop offset="1" stop-color="#19FB9B"/>
</linearGradient>
</defs>
</svg>

<svg xmlns="http://www.w3.org/2000/svg" width="96" height="96" fill="none" viewBox="0 0 96 96"><rect width="90" height="90" x="3" y="3" fill="#000" rx="45"/><rect width="90" height="90" x="3" y="3" stroke="url(#a)" stroke-width="6" rx="45"/><g opacity=".7"><path fill="#98D120" d="m35.545 29.75 31.613-4.443v2.632l-31.613 4.443zm-.911.588c.243-.328.569-.54.91-.587v2.631c-.341.049-.667.26-.91.588z"/><path fill="#98D120" d="M67.157 25.307c.39-.055.648.295.648.695v2.631c0-.4-.258-.75-.648-.695z"/><path fill="#98D120" d="M67.805 26.002c0 .192-.06.396-.193.573v2.631a.95.95 0 0 0 .193-.572zM28.387 38.766l6.246-8.43v2.633l-6.246 8.428z"/><path fill="#98D120" d="m67.613 26.575-6.247 8.429v2.632l6.247-8.43zM28.194 39.339c0-.193.06-.396.193-.573v2.632a.95.95 0 0 0-.193.572z"/><path fill="#98D120" d="M28.842 40.033c-.39.055-.648-.294-.648-.695v2.631c0 .401.258.75.648.696zm32.524-5.028c-.243.328-.57.54-.91.587v2.632c.34-.048.667-.26.91-.588zm-.91.585-31.613 4.443v2.632l31.613-4.443zm-31.613 9.049 31.613-4.443v2.631L28.843 47.27z"/><path fill="#C4FF61" d="M60.455 40.197a1.03 1.03 0 0 1 .91.332v2.631a1.03 1.03 0 0 0-.91-.331z"/><path fill="#98D120" d="M28.194 45.517c0-.4.259-.823.648-.878v2.632c-.39.055-.648.477-.648.877z"/><path fill="#C4FF61" d="M28.387 46.036a.74.74 0 0 1-.193-.518v2.631c0 .192.06.38.193.519z"/><path fill="#98D120" d="m61.366 40.527 6.247 6.673v2.632l-6.247-6.673zM34.633 52.708l-6.246-6.673v2.632l6.246 6.673z"/><path fill="#98D120" d="M67.612 47.201a.74.74 0 0 1 .193.519v2.631a.74.74 0 0 0-.193-.518z"/><path fill="#98D120" d="M67.805 47.72c0 .4-.258.822-.648.877v2.631c.39-.055.648-.477.648-.877zm-32.26 5.32a1.03 1.03 0 0 1-.911-.331v2.632c.243.26.569.379.91.33z"/><path fill="#98D120" d="M67.158 48.596 35.545 53.04v2.632l31.613-4.443zm-31.613 9.181 31.613-4.443v2.632l-31.613 4.443zm-.911.586c.243-.328.569-.539.91-.587v2.632c-.341.048-.667.259-.91.587z"/><path fill="#98D120" d="M67.157 53.334c.39-.055.648.294.648.694v2.632c0-.4-.258-.75-.648-.694z"/><path fill="#98D120" d="M67.805 54.028c0 .192-.06.395-.193.572v2.631a.95.95 0 0 0 .193-.572zM28.387 66.795l6.246-8.43v2.63l-6.246 8.431z"/><path fill="#98D120" d="m67.613 54.6-6.247 8.431v2.632l6.247-8.43zM28.194 67.365c0-.192.06-.395.193-.572v2.632a.95.95 0 0 0-.193.572z"/><path fill="#98D120" d="M28.842 68.06c-.39.055-.648-.294-.648-.695v2.632c0 .4.258.75.648.694zm32.524-5.03c-.243.328-.57.539-.91.587v2.632c.34-.048.667-.26.91-.587zm-.91.588L28.843 68.06v2.631l31.613-4.443z"/></g><path fill="#C4FF61" d="M34.633 30.338c.243-.329.57-.54.911-.588l31.613-4.443c.39-.054.648.295.648.696 0 .192-.06.396-.192.572l-6.247 8.429c-.243.328-.57.54-.91.587l-31.614 4.443c-.39.055-.648-.295-.648-.695 0-.192.06-.396.193-.573zm0 28.025c.243-.327.57-.538.911-.586l31.613-4.443c.39-.055.648.294.648.694 0 .192-.06.396-.192.572l-6.247 8.43c-.243.329-.57.54-.91.588L28.841 68.06c-.39.054-.648-.295-.648-.695a.95.95 0 0 1 .193-.572zm25.822-18.166a1.03 1.03 0 0 1 .91.33l6.248 6.674a.74.74 0 0 1 .192.519c0 .4-.258.822-.648.877L35.544 53.04a1.03 1.03 0 0 1-.91-.332l-6.247-6.672a.74.74 0 0 1-.193-.52c0-.4.259-.822.648-.876z"/><defs><linearGradient id="a" x1="14.399" x2="101.627" y1="98.934" y2="6.854" gradientUnits="userSpaceOnUse"><stop stop-color="#9945FF"/><stop offset="1" stop-color="#19FB9B"/></linearGradient></defs></svg>
